www/static/icons/gatsby.svg

<svg width="50" height="50" viewBox="0 0 50 50" fill="none" xmlns="http://www.w3.org/2000/svg">
<rect width="50" height="50" rx="6" fill="#E4E2FD"/>
<path d="M25 44C35.4934 44 44 35.4934 44 25C44 14.5066 35.4934 6 25 6C14.5066 6 6 14.5066 6 25C6 35.4934 14.5066 44 25 44Z" fill="#663399"/>
<path d="M14.4143 35.5857C11.5643 32.7357 10.0714 28.9357 10.0714 25.2714L24.8643 39.9286C21.0643 39.7928 17.2643 38.4357 14.4143 35.5857ZM28.2571 39.5214L10.4786 21.7428C11.9714 15.0928 17.9428 10.0714 25 10.0714C30.0214 10.0714 34.3643 12.5143 37.0786 16.1786L35.0428 17.9428C32.7357 14.8214 29.0714 12.7857 25 12.7857C19.7071 12.7857 15.2286 16.1786 13.4643 20.9286L29.0714 36.5357C33.0071 35.1786 35.9928 31.7857 36.9428 27.7143H30.4286V25H39.9286C39.9286 32.0571 34.9071 38.0286 28.2571 39.5214Z" fill="white"/>
</svg>

<svg width="50" height="50" fill="none" xmlns="http://www.w3.org/2000/svg"><rect width="50" height="50" rx="6" fill="#E4E2FD"/><path d="M25 44c10.493 0 19-8.507 19-19S35.493 6 25 6 6 14.507 6 25s8.507 19 19 19z" fill="#639"/><path d="M14.414 35.586c-2.85-2.85-4.343-6.65-4.343-10.315L24.864 39.93c-3.8-.136-7.6-1.493-10.45-4.343zm13.843 3.935L10.48 21.743C11.97 15.093 17.943 10.07 25 10.07c5.021 0 9.364 2.443 12.079 6.108l-2.036 1.764C32.736 14.82 29.07 12.786 25 12.786c-5.293 0-9.771 3.393-11.536 8.143l15.607 15.607c3.936-1.357 6.922-4.75 7.872-8.822h-6.514V25h9.5c0 7.057-5.022 13.029-11.672 14.521z" fill="#fff"/></svg>
